assets/img/braze_icons/hourglass-03.svg

<svg fill="none" height="24" viewBox="0 0 24 24" width="24" xmlns="http://www.w3.org/2000/svg"><path clip-rule="evenodd" d="m6.5682 1c-.25237-.000027-.49817-.000057-.70633.01695-.22859.01868-.49833.06274-.76975.20104-.37632.19175-.68228.49771-.87403.87403-.1383.27143-.18237.54116-.20104.76976-.01701.20815-.01698.45394-.01695.70631l-.00005 2.18974c-.00038.40689-.00071.76564.08294 1.11408.07349.30611.19471.59875.35919.86716.18724.30554.44114.55898.72913.84643l3.41458 3.4145-3.41458 3.4145c-.28798.2875-.54189.5409-.72913.8464-.16448.2685-.2857.5611-.35919.8672-.08365.3484-.08332.7072-.08294 1.1141l.00005 2.1897c-.00003.2524-.00006.4982.01695.7063.01867.2286.06274.4984.20104.7698.19175.3763.49771.6823.87403.874.27142.1383.54116.1824.76975.2011.20812.017.45386.0169.7062.0169h10.86393c.2524 0 .4982.0001.7063-.0169.2286-.0187.4984-.0628.7698-.2011.3763-.1917.6823-.4977.874-.874.1383-.2714.1824-.5412.2011-.7698.017-.2081.0169-.4539.0169-.7063l.0001-2.1897c.0003-.4069.0007-.7657-.083-1.1141-.0735-.3061-.1947-.5987-.3592-.8672-.1872-.3055-.4411-.5589-.7291-.8464l-3.4146-3.4145 3.4146-3.41451c.288-.28744.5419-.54088.7291-.84642.1645-.26841.2857-.56105.3592-.86716.0837-.34844.0833-.70719.083-1.11408l-.0001-2.18971c0-.25237.0001-.49819-.0169-.70634-.0187-.2286-.0628-.49833-.2011-.76976-.1917-.37632-.4977-.68228-.874-.87403-.2714-.1383-.5412-.18236-.7698-.20104-.2081-.017007-.4539-.016977-.7063-.01695zm10.7875 6.23016-3.3012 3.30124c-.1729.1729-.2594.2594-.3603.3212-.0895.0549-.187.0953-.2891.1198-.1151.0276-.2374.0276-.482.0276h-1.846c-.2446 0-.3669 0-.482-.0276-.1021-.0245-.1996-.0649-.2891-.1198-.1009-.0618-.1874-.1483-.36031-.3212l-3.30122-3.30124c-.37956-.37956-.44955-.45864-.49701-.53608-.05483-.08948-.09523-.18702-.11973-.28906-.0212-.08831-.02763-.19372-.02763-.7305v-2.07451c0-.29653.00078-.45879.0103-.57537l.00115-.01319.01319-.00114c.11658-.00953.27883-.0103.57536-.0103h10.8c.2965 0 .4588.00077.5754.0103l.0132.00114.0011.01319c.0095.11658.0103.27884.0103.57537v2.07451c0 .53678-.0064.64219-.0276.7305-.0245.10204-.0649.19958-.1198.28906-.0474.07744-.1174.15652-.497.53608zm-8.3557 10.26984c-.55228 0-1 .4477-1 1s.44772 1 1 1h6c.5523 0 1-.4477 1-1s-.4477-1-1-1z" fill="#801ed7" fill-rule="evenodd"/></svg>

<svg width="24" height="24" viewBox="0 0 24 24" fill="none" xmlns="http://www.w3.org/2000/svg">
<path fill-rule="evenodd" clip-rule="evenodd" d="M6.5682 1C6.31583 0.999973 6.07003 0.999943 5.86187 1.01695C5.63328 1.03563 5.36354 1.07969 5.09212 1.21799C4.7158 1.40974 4.40984 1.7157 4.21809 2.09202C4.07979 2.36345 4.03572 2.63318 4.01705 2.86178C4.00004 3.06993 4.00007 3.31572 4.0001 3.56809L4.00005 5.75783C3.99967 6.16472 3.99934 6.52347 4.08299 6.87191C4.15648 7.17802 4.2777 7.47066 4.44218 7.73907C4.62942 8.04461 4.88332 8.29805 5.17131 8.5855L8.58589 12L5.17131 15.4145C4.88333 15.702 4.62942 15.9554 4.44218 16.2609C4.2777 16.5294 4.15648 16.822 4.08299 17.1281C3.99934 17.4765 3.99967 17.8353 4.00005 18.2422L4.0001 20.4319C4.00007 20.6843 4.00004 20.9301 4.01705 21.1382C4.03572 21.3668 4.07979 21.6366 4.21809 21.908C4.40984 22.2843 4.7158 22.5903 5.09212 22.782C5.36354 22.9203 5.63328 22.9644 5.86187 22.9831C6.06999 23.0001 6.31573 23 6.56807 23H17.432C17.6844 23 17.9302 23.0001 18.1383 22.9831C18.3669 22.9644 18.6367 22.9203 18.9081 22.782C19.2844 22.5903 19.5904 22.2843 19.7821 21.908C19.9204 21.6366 19.9645 21.3668 19.9832 21.1382C20.0002 20.9301 20.0001 20.6843 20.0001 20.4319L20.0002 18.2422C20.0005 17.8353 20.0009 17.4765 19.9172 17.1281C19.8437 16.822 19.7225 16.5294 19.558 16.2609C19.3708 15.9554 19.1169 15.702 18.8289 15.4145L15.4143 12L18.8289 8.58549C19.1169 8.29805 19.3708 8.04461 19.558 7.73907C19.7225 7.47066 19.8437 7.17802 19.9172 6.87191C20.0009 6.52347 20.0005 6.16472 20.0002 5.75783L20.0001 3.56812C20.0001 3.31575 20.0002 3.06993 19.9832 2.86178C19.9645 2.63318 19.9204 2.36345 19.7821 2.09202C19.5904 1.7157 19.2844 1.40974 18.9081 1.21799C18.6367 1.07969 18.3669 1.03563 18.1383 1.01695C17.9302 0.999943 17.6844 0.999973 17.432 1L6.5682 1ZM17.3557 7.23016L14.0545 10.5314C13.8816 10.7043 13.7951 10.7908 13.6942 10.8526C13.6047 10.9075 13.5072 10.9479 13.4051 10.9724C13.29 11 13.1677 11 12.9231 11H11.0771C10.8325 11 10.7102 11 10.5951 10.9724C10.493 10.9479 10.3955 10.9075 10.306 10.8526C10.2051 10.7908 10.1186 10.7043 9.94569 10.5314L6.64447 7.23016C6.26491 6.8506 6.19492 6.77152 6.14746 6.69408C6.09263 6.6046 6.05223 6.50706 6.02773 6.40502C6.00653 6.31671 6.0001 6.2113 6.0001 5.67452V3.60001C6.0001 3.30348 6.00088 3.14122 6.0104 3.02464L6.01155 3.01145L6.02474 3.01031C6.14132 3.00078 6.30357 3.00001 6.6001 3.00001H17.4001C17.6966 3.00001 17.8589 3.00078 17.9755 3.01031L17.9887 3.01145L17.9898 3.02464C17.9993 3.14122 18.0001 3.30348 18.0001 3.60001V5.67452C18.0001 6.2113 17.9937 6.31671 17.9725 6.40502C17.948 6.50706 17.9076 6.6046 17.8527 6.69408C17.8053 6.77152 17.7353 6.8506 17.3557 7.23016ZM9 17.5C8.44772 17.5 8 17.9477 8 18.5C8 19.0523 8.44772 19.5 9 19.5H15C15.5523 19.5 16 19.0523 16 18.5C16 17.9477 15.5523 17.5 15 17.5H9Z" fill="#801ED7"/>
</svg>
